X:1
T:Rathbun, 87.87
T:Rathbun, 87.87
T:Ithamar Conkey, 1849
T:Public Domain Courtesy of the Cyber Hymnal™
C:Ithamar Conkey, 1849
Z:Public Domain
Z:Courtesy of the Cyber Hymnal™
%%score ( 1 2 ) ( 3 4 )
L:1/8
Q:1/4=130
M:3/4
K:Bb
V:1 treble 
V:2 treble 
V:3 bass 
V:4 bass 
V:1
 [DF]4 [DB]2 | [Fd]4 [FB]2 | (A2 G2) F2 | [DB]2 [DF]4 | [B,F]4 [B,G]2 | [B,D]4 [A,C]2 | D4 [C=E]2 | %7
 [CF]6 | [DF]4 [DB]2 | [Fd]4 [FB]2 | c2 (BA) (GF) | [DB]2 [DF]4 | [DF]4 [EG]2 | [DF]4 [DB]2 | %14
 [B,D]4 [A,C]2 | B,6 |] %16
V:2
 x6 | x6 | E4 x2 | x6 | x6 | x6 | (B,2 D2) x2 | x6 | x6 | x6 | E4 E2 | x6 | x6 | x6 | x6 | B,6 |] %16
V:3
 [B,,F,]4 [B,,F,]2 | [B,,B,]4 [D,B,]2 | (C2 B,2) [F,A,]2 | [B,,F,]2 [B,,B,]4 | [D,B,]4 [E,G,]2 | %5
 F,4 [F,,F,]2 | [B,,F,]2 [G,,B,]2 [C,B,]2 | [F,,A,]6 | [B,,B,]4 [B,,F,]2 | (F,2 B,2) [D,B,]2 | %10
 (A,2 C2) [F,A,]2 | [B,,F,]2 [B,,B,]4 | [B,,B,]4 [B,,B,]2 | [B,,B,]4 F,2 | F,4 [F,,E,]2 | %15
 [B,,D,]6 |] %16
V:4
 x6 | x6 | F,4 x2 | x6 | x6 | F,4 x2 | x6 | x6 | x6 | B,,4 x2 | F,6 | x6 | x6 | x4 (B,,D,) | %14
 F,4 x2 | x6 |] %16

